X:1
T:Title
%%score { ( 1 3 ) | ( 2 4 ) }
L:1/8
M:4/4
K:F
V:1 treble nm="Grand Piano"
V:3 treble 
V:2 bass 
V:4 bass 
V:1
 z4 z2[Q:1/4=100] C>F | A2 A2 A>G B>A | [DG]4 D2 E>D | C2 [DB]2 [G,B,D]2 [DEB]2 | A6 C>F | %5
 A2 A2 A>G B>A | [DG]4 D2 E>D | C2 [FA]2 [EA]2 [EG]2 |[M:3/4] F6 |[M:1/4] c>[Fc] | %10
[M:4/4] [Fd]2 [Fd]2 [DFB]>[DFB] [Fe]>[Fd] | c4 A2 A>A | [FA]2 [Fd]2 c2 =B2 | %13
[M:9/8] c3- c- [Gc]2- [G-c]/G<CF/ |[M:4/4] A2 A2 A>G B>A | %15
[M:9/8] [_EFc]3- [EFc] [DFB]2- [DFB][DG]>[DG] |[M:4/4] F2 EF [CFA]2 [B,EG]2 |[M:3/4] [A,F]6 |] %18
V:2
 z4 z2 [F,A,]>[F,A,C] | [F,CF]2 [F,CF]2 [F,CF]>[F,B,F] [F,DF]>[F,CF] | %2
 [B,,B,]4 [B,,F,B,]2 [B,,G,B,]>[B,,F,B,] | [C,E,B,]2 [C,G,]2 C,2 C,2 | [F,CF]6 [F,A,]>[F,A,C] | %5
 [F,CF]2 [F,CF]2 [F,CF]>[F,B,F] [F,DF]>[F,CF] | [B,,B,]4 [B,,F,B,]2 [B,,G,B,]>[B,,F,] | %7
 [C,A,]2 [C,C]2 [C,C]2 [C,B,]2 |[M:3/4] [F,A,]6 |[M:1/4] [F,A,F]>[E,A,] | %10
[M:4/4] [B,,B,]2 [B,,B,]2 B,,>B,, [B,,B,]>[B,,B,] | [F,A,F]4 [F,CF]2 [F,CF]>[F,CF] | %12
 [D,D]2 [D,A,]2[K:treble] [G,E]2 [G,F]2 |[M:9/8][K:bass] G,3- G, B,2- B,[F,A,]>[F,A,C] | %14
[M:4/4] [F,CF]2 [F,CF]2 [F,CF]>[F,B,F] [F,DF]>[F,CF] |[M:9/8] A,,3- A,, B,,2- B,,[B,,B,]>[B,,B,] | %16
[M:4/4] z2 [C,C]2 z4 |[M:3/4] F,6 |] %18
V:3
 x8 | x8 | x8 | x8 | x8 | x8 | x8 | x8 |[M:3/4] x6 |[M:1/4] x2 |[M:4/4] x8 | x8 | x8 | %13
[M:9/8] .E6 z3 |[M:4/4] x8 |[M:9/8] x9 |[M:4/4] x8 |[M:3/4] x6 |] %18
V:4
 x8 | x8 | x8 | x8 | x8 | x8 | x8 | x8 |[M:3/4] x6 |[M:1/4] x2 |[M:4/4] x8 | x8 | x4[K:treble] x4 | %13
[M:9/8][K:bass] C,6- C,/ z/ z z |[M:4/4] x8 |[M:9/8] x9 |[M:4/4] [C,A,C]2 G,A, C,2 C,2 | %17
[M:3/4] x6 |] %18

